X:1
T:Title
%%score ( 1 2 ) { 3 | 4 }
L:1/8
Q:1/4=145
M:6/4
K:F
V:1 treble nm="Grand Piano, Soprano"
V:2 treble 
V:3 treble nm="Choir Pad, He Will Always Be Precious"
V:4 bass 
V:1
 [CF][CG] [FA]2 [FA]2 [FA]2 [FA]2 [FA]2 | [FA]2 F2 F2 [EG]2 [FA]4 | %2
w: By~McDuffie~Weams * * * * * *||
 [FA][FB] [Fc]2 [Fc]2 [Fd]2 [Fc]2 [FA]2 | [FA]2 [FA]2 [CG]2 [DG]2 [EG]4 | %4
w: ||
 F[FG] [FA]2 [FA]2 [FA]2 [FA]4 | [FA][FA] [FB]2 [F=B]2 [Fc]2 [Fd]4 | %6
w: ||
 [Fd][Fd] [Fc]2 [Fc]2 [Fd]2 [Fc]2 [EB]2 | [EA]2 [EA] [FA]3 [EG]2 [CF]4 | %8
w: ||
 [FA][FB] [Fc]2 [Fc]2 [Fd]2 [Fc]2 [Fc]2 | z2 c4- c4- c3/2 z/ | %10
w: ||
 F[FG] [FA]2 [FA]2 [FA]2 [Ac]2 [Ac]2 | z2 G4- G4- G3/2 z/ | [FA][FB] [Fc]2 [Ec]2 [Gc]2 [Fc]4 | %13
w: |||
 [FA][FA] [FB]2 [F=B]2 [Fc]2 [Fd]4 | [Fd][Fd] [Fc]2 [Fc]2 [EB]2 [FA] [FA]3 | [EG]2 [CF]4- [CF]6- | %16
w: |||
 [CF]6 z6 |] %17
w: |
V:2
 x12 | x12 | x12 | x12 | x12 | x12 | x12 | x12 | x12 | [FA]2 F4 G2 A4 | x12 | [FA]2 E4 D2 E4 | %12
 x12 | x12 | x12 | x12 | x12 |] %17
V:3
 A,B, C2 C2 C2 C2 C2 | C2 C2 C2 C2 C4 | F,G, A,2 A,2 B,2 A,2[K:treble] C2 | C2 C2 C2 =B,2 C4 | %4
 A,=B, C2 C2 C2 C4 | CC[K:bass] B,2 _A,2 =A,2 B,4 | B,B, A,2 A,2 B,2 A,2[K:treble] C2 | %7
 C2 C C3 B,2[K:bass] A,4 | F,G, A,2 A,2 B,2 A,2 A,2 | C2 A,4 B,2 C4 | %10
 A,B,[K:treble] C2 C2 C2 F2 F2 | C2 C4[K:bass] =B,2 C4 | F,G, A,2 G,2 B,2 A,4 | %13
 CC B,2 _A,2 =A,2 B,4 | B,B, A,2 A,2 C2 C C3 | B,2 A,4- A,6- | A,6 z6 |] %17
V:4
 F,F, F,2 F,2 F,2 F,2 F,2 | F,2 A,2 A,2 G,2 F,4 | z F, F,2 F,2 F,2 F,2 F,2 | F,2 F,2 E,2 D,2 C,4 | %4
 F,F, F,2 F,2 F,2 F,4 | F,_E, D,2 ^C,2 =C,2 B,,4 | B,,B,, C,2 C,2 C,2 C,2 C,2 | %7
 C,2 C, C,3 C,2 [F,,F,]4 | z F, F,2 F,2 F,2 F,2 F,2 | F,2 F,4 C,2 F,4 | F,F, F,2 F,2 F,2 F,2 F,2 | %11
 F,2 C,4 G,,2 C,4 | z F, F,2 C,2 E,2 F,4 | F,_E, ^C,2 C,2 =C,2 B,,4 | B,,B,, C,2 C,2 C,2 C, C,3 | %15
 C,2 [F,,F,]4- [F,,F,]6- | [F,,F,]6 z6 |] %17

